X:469
T:Sp\'ort
R:jig
C:Peadar \'O Riada
Z:hn-jig-469
M:6/8
L:1/8
K:D
AdF ~A3 | GBE ~G3 | AdF ~A3 | GBE cde |
AdF ~A3 | GBE GFG | cdc A2G |1 EAA D3 :|2 EAA D2d ||
|: cBc dcd | cec A2g | fed ged | c/d/ec A2e |
~f3 gfg | faf d2e | fdF AF/G/A |1 GEA D2d :|2 GEA D3 ||
|: AGG AGE | AGE EDD | AGE cde | dcA ~G3 |
AGG AGE | AGE EDD | cdc A2G | EAA D3 :|
P:variations
|: AdF A2F | GBE GE/F/G | AdF ~A3 | GEE cde |
AdF ~A3 | GBE G2A | cdc A2G |1 EAA D3 :|2 EAA D2d ||
|: ~c3 ~d3 | c/d/ec A2g | ~f3 ged | edc A2g |
fef gfg | age d2e | fdF A2F |1 GEA D2d :|2 GEA D3 ||
|: AGG AEE | AGE EDD | AGG cde | dcA ~G3 |
AGG AEE | AGE EDD | cdc A2G | EAA D3 :|

